svg/white/fun.svg

<svg xmlns="http://www.w3.org/2000/svg" width="32" height="32" viewBox="0 0 32 32">
  <path fill="#FFF" fill-rule="evenodd" d="M16,32 C7.163444,32 0,24.836556 0,16 C0,7.163444 7.163444,0 16,0 C24.836556,0 32,7.163444 32,16 C32,24.836556 24.836556,32 16,32 Z M6.24430597,16.031746 C6.2447116,16.6344787 6.30023157,17.2359061 6.41016938,17.8284832 L5.18709171,18.0573192 C5.31142054,18.7254034 5.49759335,19.3804245 5.74319609,20.0138889 L6.9029201,19.5619489 C7.12077416,20.1232889 7.39000226,20.6632166 7.70715966,21.1748236 L6.65038535,21.8330026 C7.00822378,22.4098859 7.41830757,22.9525207 7.87544283,23.4540344 L8.79407094,22.6132055 C9.19969534,23.0582148 9.64518275,23.4650105 10.1249378,23.8284832 L9.37503284,24.8234127 C9.91595697,25.2330717 10.49351,25.5917406 11.1003203,25.8948413 L11.6551048,24.7785494 C12.1931834,25.0469139 12.7549617,25.2646325 13.3332069,25.4289021 L12.9944408,26.6299603 C13.6467272,26.8149019 14.3147314,26.9387796 14.9898612,27 L15.1026,25.7582672 C15.3984704,25.7852734 15.6999502,25.7989418 15.9987903,25.7989418 C16.3006001,25.7989418 16.6051597,25.7849427 16.9038898,25.7574956 L17.0178384,26.9991182 C17.6929643,26.9371665 18.3608958,26.8125507 19.0130389,26.6268739 L18.6726229,25.4272487 C19.2505893,25.2623496 19.8120351,25.044041 20.3497352,24.7751323 L20.9055096,25.890873 C21.5119518,25.5872838 22.0890988,25.2281728 22.6295871,24.8181217 L21.8789122,23.8238536 C22.3584474,23.4599938 22.8036774,23.0528288 23.2090092,22.6074735 L24.1284072,23.4476411 C24.5851505,22.9456523 24.994793,22.402574 25.3521448,21.8252866 L24.2949306,21.1679894 C24.6116925,20.6559417 24.880479,20.1156075 25.0978503,19.5539021 L26.2580142,20.0044092 C26.5030501,19.3707071 26.6886338,18.7155014 26.8123588,18.0472884 L25.5914809,17.8196649 C25.7015915,17.2271032 25.7572955,16.6256768 25.7578942,16.0229277 L25.7578942,16.0051808 L27,16.0030864 C26.998747,15.3239318 26.9351993,14.6463306 26.810159,13.978836 L25.5867514,14.208664 C25.4756696,13.6167683 25.3099745,13.0364911 25.0918009,12.4753086 L26.2510849,12.022597 C26.0049307,11.3894657 25.7006798,10.7805941 25.3422458,10.2038139 L24.2863514,10.862985 C23.9682968,10.3514666 23.6040222,9.87031455 23.1981203,9.42559524 L24.1159785,8.58388448 C23.6584389,8.08274 23.1559124,7.62479577 22.6147386,7.21582892 L21.8657135,8.21141975 C21.3854443,7.84866174 20.8728142,7.53106886 20.3343367,7.26267637 L20.8881313,6.14583333 C20.280628,5.84335705 19.6463311,5.59825064 18.9934608,5.41369048 L18.6553546,6.61386684 C18.0768789,6.4504374 17.4845573,6.34099104 16.8859616,6.28692681 L16.9979304,5.04497354 C16.6689166,5.01557907 16.3359066,5.00058789 15.9989003,5 C15.6519217,5 15.308976,5.01590976 14.9700632,5.04772928 L15.0851117,6.28935185 C14.4866582,6.34504781 13.8946304,6.45611794 13.3165986,6.62114198 L12.9751928,5.42184744 C12.3231064,5.60838723 11.6897689,5.85537493 11.083382,6.15961199 L11.6400363,7.27480159 C11.1025166,7.54460281 10.5909567,7.86348564 10.1118491,8.227403 L9.36029431,7.2337963 C8.82017469,7.64415611 8.31882653,8.10339164 7.86257411,8.60570988 L8.78274208,9.44521605 C8.37798618,9.89103433 8.01496283,10.3731833 7.69825055,10.885582 L6.64037636,10.2292769 C6.28334294,10.8070669 5.98060086,11.4168258 5.73604681,12.0507055 L6.89665072,12.5002205 C6.6801938,13.0620072 6.51626617,13.642727 6.4069797,14.2348986 L5.18357206,14.0087081 C5.06125981,14.6731051 4.99981354,15.3473176 5.00000043,16.0229277 L5.00000043,16.0328483 L6.24430597,16.031746 Z M17.1112191,23.7535273 L17.0452257,23.2893519 C17.7364423,23.190449 18.4098483,22.9923183 19.0447157,22.7010582 L19.2395062,23.127425 C18.5636115,23.4372716 17.846714,23.6479511 17.1108891,23.7529762 L17.1112191,23.7535273 Z M23.7917309,16.0223765 C23.7923142,16.7670588 23.6867586,17.5080069 23.4782622,18.2227734 L23.0292871,18.0904982 C23.2252388,17.4187715 23.3244607,16.7224409 23.3239477,16.022597 L23.3239477,16.0104718 L23.7918409,16.0092593 L23.7918409,16.0219356 L23.7917309,16.0223765 Z M22.5488552,11.7904541 C22.9523038,12.4158225 23.2639726,13.0960573 23.4743026,13.8102954 L23.0255475,13.9425705 C22.8279076,13.2713244 22.5350182,12.6320344 22.1558645,12.0443122 L22.5488552,11.7904541 Z M22.1624638,19.9906305 L22.5558945,20.2441578 C22.1537203,20.8702333 21.6646399,21.4357268 21.1033798,21.9236111 L20.7972804,21.5697751 C21.3248151,21.1109915 21.7844884,20.579275 22.1624638,19.9906305 Z M19.2270774,8.91258818 C19.903167,9.22154712 20.5316994,9.62580762 21.0935908,10.1130952 L20.7874914,10.4678131 C20.2593031,10.0097818 19.6684753,9.629797 19.0329469,9.33939594 L19.2270774,8.91258818 Z M18.0475554,14.0968915 L19.1376564,14.0968915 L20.5553046,16.1923501 L20.5553046,14.0968915 L21.6661935,14.0968915 L21.6661935,17.8887787 L20.5605841,17.8887787 L19.1474454,15.804784 L19.1474454,17.8887787 L18.0475554,17.8887787 L18.0475554,14.0968915 Z M15.9989003,8.21340388 C16.3664736,8.21343609 16.7335951,8.2392191 17.0975804,8.29056437 L17.032137,8.75485009 C16.3404562,8.65738091 15.6385079,8.65827154 14.9470755,8.75749559 L14.8805322,8.29332011 C15.2509578,8.24012659 15.6246913,8.21342039 15.9989003,8.21340388 Z M13.7469856,14.0968915 L14.9128689,14.0968915 L14.9128689,16.4071869 C14.9128689,16.6137566 14.9710531,16.775022 15.0853317,16.8912037 C15.1996103,17.0073854 15.3586544,17.0654762 15.5614741,17.0654762 C15.762534,17.0654762 15.922568,17.0082672 16.0369565,16.8938492 C16.1513451,16.7794312 16.2107391,16.6171737 16.2107391,16.4072972 L16.2107391,14.0968915 L17.3766279,14.0968915 L17.3766225,16.3533951 C17.3771364,16.5692174 17.3409835,16.7835522 17.2697132,16.9872134 C17.2010773,17.1837897 17.0886886,17.3621272 16.9410661,17.5087081 C16.7924343,17.6575911 16.6362499,17.762162 16.472513,17.8224206 C16.2456423,17.9067093 15.9731629,17.9488904 15.6550747,17.9489638 C15.4537994,17.9478714 15.2527611,17.9349524 15.0529949,17.9102734 C14.8355833,17.8844062 14.6538082,17.8331864 14.5076695,17.7566138 C14.3615308,17.6800412 14.2278941,17.5711714 14.1067596,17.4300044 C13.9857717,17.2889109 13.9013001,17.1434083 13.8565346,16.9937169 C13.7843818,16.7527557 13.7465456,16.5393519 13.7465456,16.3535053 L13.7465456,14.0968915 L13.7469856,14.0968915 Z M14.9596143,23.2900132 L14.8936209,23.7542989 C14.1577472,23.6496802 13.4407402,23.4394095 12.7646738,23.1299603 L12.9590244,22.703373 C13.5943278,22.994159 14.2681073,23.1917338 14.9596143,23.2900132 Z M12.753015,8.92118607 L12.9481355,9.34744268 C12.3133966,9.63942801 11.7235711,10.020859 11.1965606,10.4801587 L10.8895814,10.1262125 C11.4502462,9.6375863 12.0777396,9.23180519 12.753015,8.92118607 Z M10.3373266,14.0968915 L13.2190384,14.0968915 L13.2190384,14.9125882 L11.5142089,14.9125882 L11.5142089,15.5739638 L12.9770626,15.5739638 L12.9770626,16.3345459 L11.5142089,16.3345459 L11.5142089,17.8887787 L10.3373266,17.8887787 L10.3373266,14.0968915 Z M11.2062397,21.5737434 L10.8999203,21.9281305 C10.3382794,21.4407115 9.84875455,20.8756262 9.44608573,20.2498898 L9.8392964,19.9958113 C10.2178977,20.5841487 10.6781653,21.115459 11.2062397,21.5737434 Z M9.43893645,11.8074295 L9.83258707,12.0609568 C9.45492128,12.6496362 9.16366101,13.2896704 8.96774357,13.9614198 L8.51810855,13.8293651 C8.72661231,13.1144844 9.03657861,12.4333556 9.43849649,11.8068783 L9.43893645,11.8074295 Z M8.67484287,16.0292108 C8.6748642,16.7290981 8.77464204,17.4253942 8.97115323,18.0970018 L8.52228813,18.2292769 C8.3132052,17.5148562 8.20702,16.7741675 8.20694967,16.0296517 L8.67484287,16.0292108 Z"/>
</svg>

<svg xmlns="http://www.w3.org/2000/svg" width="32" height="32"><path fill="#FFF" fill-rule="evenodd" d="M16 32C7.163 32 0 24.837 0 16S7.163 0 16 0s16 7.163 16 16-7.163 16-16 16zM6.244 16.032c0 .602.056 1.204.166 1.796l-1.223.23c.124.667.31 1.322.556 1.956l1.16-.452a9.77 9.77 0 0 0 .804 1.613l-1.057.658c.358.577.768 1.12 1.225 1.621l.92-.84c.405.444.85.851 1.33 1.214l-.75.995c.541.41 1.119.769 1.725 1.072l.555-1.116c.538.268 1.1.486 1.678.65l-.339 1.201c.653.185 1.32.309 1.996.37l.113-1.242a9.9 9.9 0 0 0 1.8 0l.115 1.241a10.935 10.935 0 0 0 1.995-.372l-.34-1.2a9.698 9.698 0 0 0 1.677-.652l.556 1.116a10.998 10.998 0 0 0 1.724-1.073l-.751-.994c.48-.364.925-.771 1.33-1.217l.92.84c.456-.501.866-1.044 1.223-1.622l-1.057-.657a9.771 9.771 0 0 0 .803-1.614l1.16.45c.245-.633.43-1.288.554-1.957l-1.22-.227c.11-.593.165-1.194.166-1.797v-.018L27 16.003a11.105 11.105 0 0 0-.19-2.024l-1.223.23a9.743 9.743 0 0 0-.495-1.734l1.16-.452a10.992 10.992 0 0 0-.91-1.82l-1.056.66a9.838 9.838 0 0 0-1.088-1.437l.918-.842c-.458-.501-.96-.96-1.501-1.368l-.75.995a9.777 9.777 0 0 0-1.53-.948l.553-1.117a10.909 10.909 0 0 0-1.895-.732l-.338 1.2a9.726 9.726 0 0 0-1.769-.327l.112-1.242a11 11 0 0 0-2.028.003l.115 1.241a9.725 9.725 0 0 0-1.768.332l-.342-1.2a10.91 10.91 0 0 0-1.892.739l.557 1.115a9.78 9.78 0 0 0-1.528.952l-.752-.993c-.54.41-1.041.87-1.497 1.372l.92.84a9.837 9.837 0 0 0-1.085 1.44l-1.058-.657a10.99 10.99 0 0 0-.904 1.822l1.16.45a9.743 9.743 0 0 0-.489 1.734l-1.223-.226A11.108 11.108 0 0 0 5 16.023v.01l1.244-.001zm10.867 7.722l-.066-.465a7.262 7.262 0 0 0 2-.588l.195.426c-.676.31-1.393.521-2.13.626h.001zm6.68-7.732c.001.745-.104 1.486-.313 2.2l-.449-.132a7.365 7.365 0 0 0 .295-2.067v-.013h.468v.012zM22.55 11.79a7.78 7.78 0 0 1 .925 2.02l-.448.133a7.31 7.31 0 0 0-.87-1.899l.393-.254zm-.387 8.2l.394.254a7.839 7.839 0 0 1-1.453 1.68l-.306-.354a7.37 7.37 0 0 0 1.365-1.58zM19.227 8.914a7.792 7.792 0 0 1 1.867 1.2l-.307.355a7.325 7.325 0 0 0-1.754-1.129l.194-.426zm-1.18 5.184h1.09l1.418 2.095v-2.095h1.111v3.792h-1.105l-1.414-2.084v2.084h-1.1v-3.792zM16 8.213c.367 0 .735.026 1.099.078l-.066.464a7.405 7.405 0 0 0-2.085.002l-.066-.464a7.87 7.87 0 0 1 1.118-.08zm-2.252 5.884h1.166v2.31c0 .207.058.368.172.484.115.116.274.174.476.174.202 0 .362-.057.476-.171.114-.115.174-.277.174-.487v-2.31h1.166v2.256c0 .216-.036.43-.107.634a1.372 1.372 0 0 1-.329.522 1.304 1.304 0 0 1-.468.313c-.227.085-.5.127-.818.127a5.138 5.138 0 0 1-.602-.039 1.575 1.575 0 0 1-.545-.153 1.364 1.364 0 0 1-.401-.327 1.209 1.209 0 0 1-.25-.436 2.275 2.275 0 0 1-.11-.64v-2.257zm1.213 9.193l-.066.464a7.73 7.73 0 0 1-2.13-.624l.195-.427c.635.291 1.31.489 2 .587zM12.753 8.921l.195.426a7.326 7.326 0 0 0-1.751 1.133l-.307-.354a7.793 7.793 0 0 1 1.863-1.205zm-2.416 5.176h2.882v.816h-1.705v.661h1.463v.76h-1.463v1.555h-1.177v-3.792zm.87 7.477l-.307.354a7.838 7.838 0 0 1-1.454-1.678l.393-.254a7.37 7.37 0 0 0 1.367 1.578zm-1.768-9.767l.394.254a7.31 7.31 0 0 0-.865 1.9l-.45-.132a7.78 7.78 0 0 1 .92-2.022zm-.764 4.222c0 .7.1 1.396.296 2.068l-.449.132a7.834 7.834 0 0 1-.315-2.2h.468z"/></svg>
